cssgg/distribute-horizontal.svg

<svg viewBox="0 0 24 24" xmlns="http://www.w3.org/2000/svg"><path fill="none" stroke="#000" stroke-opacity=".5" stroke-width="2" d="M11 9h2v6h-2V9Z"/><g><path d="M5 5v14h2V5H5Z"/><path d="M17 5v14h2V5h-2Z"/></g></svg>

<svg
  width="24"
  height="24"
  viewBox="0 0 24 24"
  fill="none"
  xmlns="http://www.w3.org/2000/svg"
>
  <path
    d="M11 9H13V15H11V9Z"
    stroke="currentColor"
    stroke-opacity="0.5"
    stroke-width="2"
  />
  <path d="M5 5V19H7V5H5Z" fill="currentColor" />
  <path d="M17 5V19H19V5H17Z" fill="currentColor" />
</svg>
